flaticon/gastronomy/pot.svg

<svg xmlns="http://www.w3.org/2000/svg" width="32" height="32" viewBox="0 0 24 24">
    <path d="M24 5.386719L0 5.386719 0 6.367188 2.449219 6.367188 2.449219 20.171875C2.449219 22.28125 4.164062 24 6.277344 24L17.722656 24C19.835938 24 21.550781 22.28125 21.550781 20.171875L21.550781 6.367188 24 6.367188zM6.277344 23.019531C6.109375 23.019531 5.945312 23.003906 5.785156 22.976562 5.769531 22.972656 5.75 22.96875 5.734375 22.96875 5.585938 22.9375 5.4375 22.894531 5.296875 22.84375 5.273438 22.835938 5.253906 22.828125 5.230469 22.820312 5.09375 22.765625 4.964844 22.699219 4.839844 22.625 4.816406 22.613281 4.796875 22.601562 4.773438 22.585938 4.648438 22.511719 4.53125 22.425781 4.421875 22.332031 4.40625 22.316406 4.390625 22.300781 4.371094 22.285156 4.261719 22.183594 4.160156 22.078125 4.066406 21.964844 4.054688 21.953125 4.046875 21.941406 4.039062 21.929688 3.945312 21.808594 3.859375 21.679688 3.785156 21.546875 3.78125 21.542969 3.777344 21.539062 3.777344 21.535156 3.703125 21.398438 3.640625 21.253906 3.589844 21.109375 3.582031 21.089844 3.578125 21.074219 3.570312 21.054688 3.523438 20.914062 3.492188 20.765625 3.464844 20.613281 3.464844 20.601562 3.460938 20.585938 3.460938 20.570312L20.539062 20.570312C20.539062 20.585938 20.535156 20.601562 20.535156 20.613281 20.511719 20.765625 20.476562 20.914062 20.429688 21.054688 20.425781 21.074219 20.417969 21.089844 20.410156 21.109375 20.359375 21.253906 20.296875 21.398438 20.222656 21.535156 20.222656 21.539062 20.21875 21.542969 20.214844 21.546875 20.140625 21.679688 20.054688 21.808594 19.960938 21.929688 19.953125 21.941406 19.945312 21.953125 19.933594 21.964844 19.839844 22.078125 19.738281 22.183594 19.628906 22.285156 19.609375 22.300781 19.59375 22.316406 19.578125 22.332031 19.46875 22.425781 19.351562 22.511719 19.226562 22.585938 19.207031 22.601562 19.183594 22.613281 19.164062 22.625 19.035156 22.699219 18.90625 22.765625 18.769531 22.820312 18.746094 22.828125 18.726562 22.835938 18.703125 22.84375 18.5625 22.894531 18.417969 22.9375 18.265625 22.96875 18.25 22.96875 18.230469 22.972656 18.214844 22.976562 18.054688 23.003906 17.890625 23.019531 17.722656 23.019531zM20.570312 19.59375L3.429688 19.59375 3.429688 18.613281 7.835938 18.613281C8.105469 18.613281 8.328125 18.394531 8.328125 18.121094 8.328125 17.851562 8.105469 17.632812 7.835938 17.632812L3.429688 17.632812 3.429688 16.652344 6.367188 16.652344C6.636719 16.652344 6.855469 16.433594 6.855469 16.164062 6.855469 15.890625 6.636719 15.671875 6.367188 15.671875L3.429688 15.671875 3.429688 14.695312 5.386719 14.695312C5.65625 14.695312 5.878906 14.476562 5.878906 14.203125 5.878906 13.933594 5.65625 13.714844 5.386719 13.714844L3.429688 13.714844 3.429688 6.367188 20.570312 6.367188zM21.550781 4.40625C21.550781 3.058594 20.453125 1.960938 19.101562 1.960938L14.644531 1.960938C14.417969.84375 13.425781 0 12.246094 0L11.753906 0C10.574219 0 9.582031.84375 9.355469 1.960938L4.898438 1.960938C3.546875 1.960938 2.449219 3.058594 2.449219 4.40625L2.449219 4.898438 21.550781 4.898438zM11.753906.980469L12.246094.980469C12.882812.980469 13.429688 1.390625 13.628906 1.960938L10.371094 1.960938C10.570312 1.390625 11.117188.980469 11.753906.980469zM3.511719 3.917969C3.714844 3.347656 4.257812 2.9375 4.898438 2.9375L19.101562 2.9375C19.742188 2.9375 20.285156 3.347656 20.488281 3.917969zM3.511719 3.917969"/>
</svg>

<svg xmlns="http://www.w3.org/2000/svg" width="32" height="32" viewBox="0 0 24 24">
    <path d="M24 5.387H0v.98h2.45v13.805A3.832 3.832 0 0 0 6.276 24h11.446a3.832 3.832 0 0 0 3.828-3.828V6.367H24zM6.277 23.02a2.92 2.92 0 0 1-.543-.051 3.302 3.302 0 0 1-.437-.125l-.067-.024a2.804 2.804 0 0 1-.457-.234 2.514 2.514 0 0 1-.351-.254c-.016-.016-.031-.031-.05-.047a3.362 3.362 0 0 1-.306-.32 3.096 3.096 0 0 1-.29-.43 2.938 2.938 0 0 1-.186-.426l-.02-.054a3.165 3.165 0 0 1-.105-.442c0-.011-.004-.027-.004-.043h17.078c0 .016-.004.032-.004.043-.023.153-.058.301-.105.442-.004.02-.012.035-.02.054a2.938 2.938 0 0 1-.195.438c-.074.133-.16.262-.254.383-.008.011-.016.023-.027.035a3.362 3.362 0 0 1-.305.32c-.02.016-.035.031-.05.047-.11.094-.227.18-.352.254-.02.016-.043.027-.063.039-.129.074-.258.14-.394.195l-.067.024a3.14 3.14 0 0 1-.437.125 2.92 2.92 0 0 1-.543.05zm14.293-3.426H3.43v-.98h4.406a.492.492 0 0 0 0-.98l-4.406-.001v-.98h2.937c.27 0 .488-.22.488-.489a.49.49 0 0 0-.488-.492H3.43v-.977h1.957c.27 0 .492-.218.492-.492a.492.492 0 0 0-.492-.488H3.43V6.367h17.14zm0 0M21.55 4.406a2.45 2.45 0 0 0-2.448-2.445h-4.457A2.454 2.454 0 0 0 12.246 0h-.492c-1.18 0-2.172.844-2.399 1.96H4.898A2.45 2.45 0 0 0 2.45 4.407v.492h19.102zM11.755.98h.492c.637 0 1.184.41 1.383.98H10.37c.2-.57.746-.98 1.383-.98zM3.512 3.918c.203-.57.746-.98 1.386-.98h14.204c.64 0 1.183.41 1.386.98zm0 0"/>
</svg>
